public/images/logos/nuxtjs.svg

<svg width="28" height="28" viewBox="0 0 28 28" fill="none" xmlns="http://www.w3.org/2000/svg">
<path d="M8.59221 23.4192C8.57189 23.3833 8.55377 23.3462 8.53796 23.3081C8.42884 23.0554 8.39531 22.7764 8.44142 22.505H1.97815L11.5833 5.60142L14.7368 11.145L15.651 9.52722L12.9021 4.68468C12.7703 4.43667 12.5785 4.22563 12.3442 4.07086C12.1099 3.91609 11.8405 3.82252 11.5607 3.79871C11.2815 3.8114 11.0114 3.90221 10.7812 4.06079C10.551 4.21938 10.37 4.43939 10.2587 4.69579L0.527867 21.8044C0.382415 22.046 0.298552 22.3196 0.283654 22.6012C0.268756 22.8827 0.32328 23.1636 0.442431 23.4192C0.592076 23.6552 0.804778 23.8446 1.05647 23.966C1.30817 24.0874 1.58881 24.1359 1.86666 24.1061H10.0169C9.73898 24.1364 9.45817 24.088 9.20639 23.9666C8.9546 23.8452 8.74196 23.6555 8.59264 23.4192H8.59221Z" fill="#00C492"/>
<path d="M27.33 21.804L19.3336 7.71849C19.2024 7.46785 19.0102 7.25428 18.7748 7.0975C18.5393 6.94072 18.2681 6.84577 17.9863 6.82141C17.7074 6.8335 17.4375 6.92374 17.2074 7.08183C16.9774 7.23992 16.7964 7.45949 16.6851 7.7155L15.6509 9.52676L16.571 11.1449L17.9948 8.62412L25.9058 22.5046H22.8976C22.936 22.734 22.9144 22.9695 22.8348 23.188C22.818 23.2364 22.797 23.2831 22.772 23.3277L22.7464 23.379C22.583 23.6098 22.3652 23.7968 22.1123 23.9235C21.8594 24.0502 21.5792 24.1126 21.2965 24.1052H26.0024C26.2851 24.1128 26.5654 24.0505 26.8183 23.9238C27.0712 23.7971 27.289 23.61 27.4522 23.379C27.5811 23.1313 27.638 22.8524 27.6164 22.574C27.5948 22.2956 27.4956 22.0289 27.33 21.804Z" fill="#008776"/>
<path d="M22.747 23.3795L22.7726 23.3282C22.7975 23.2836 22.8183 23.2368 22.835 23.1885C22.9146 22.9699 22.9362 22.7345 22.8978 22.505C22.8534 22.2576 22.7645 22.0202 22.6355 21.8044L16.5772 11.145L15.6515 9.52722L14.7313 11.145L8.67515 21.8044C8.55759 22.0228 8.47854 22.2598 8.44149 22.505C8.39273 22.7758 8.42345 23.0549 8.52991 23.3085C8.5457 23.3466 8.56382 23.3837 8.58416 23.4196C8.73387 23.6555 8.94659 23.8449 9.19828 23.9662C9.44997 24.0875 9.73059 24.136 10.0084 24.1061H21.2881C21.5722 24.1145 21.854 24.0526 22.1084 23.9259C22.3628 23.7992 22.582 23.6117 22.7465 23.3799L22.747 23.3795ZM15.651 12.7631L21.1886 22.5046H10.116L15.651 12.7631Z" fill="#2D4A5D"/>
</svg>

<svg xmlns="http://www.w3.org/2000/svg" width="28" height="28" fill="none" xmlns:v="https://vecta.io/nano"><path d="M8.592 23.419c-.02-.036-.038-.073-.054-.111-.109-.253-.143-.532-.097-.803H1.978l9.605-16.904 3.154 5.544.914-1.618-2.749-4.843a1.68 1.68 0 0 0-1.341-.886c-.279.013-.549.104-.78.262s-.411.379-.523.635L.528 21.804a1.72 1.72 0 0 0-.085 1.615c.15.236.362.425.614.547s.532.17.81.14h8.15c-.278.03-.559-.018-.811-.14s-.464-.311-.614-.547h0z" fill="#00c492"/><path d="M27.33 21.804L19.334 7.718c-.131-.251-.323-.464-.559-.621s-.507-.252-.788-.276a1.49 1.49 0 0 0-1.301.894l-1.034 1.811.92 1.618 1.424-2.521 7.911 13.88h-3.008c.038.229.017.465-.063.683-.017.048-.038.095-.063.14l-.026.051a1.72 1.72 0 0 1-1.45.726h4.706a1.72 1.72 0 0 0 1.45-.726c.129-.248.186-.527.164-.805s-.121-.545-.286-.77z" fill="#008776"/><path d="M22.747 23.38l.026-.051a.87.87 0 0 0 .062-.14c.08-.219.101-.454.063-.684-.044-.247-.133-.485-.262-.701l-6.058-10.659-.926-1.618-.92 1.618-6.056 10.659a2.16 2.16 0 0 0-.234.701c-.049.271-.018.55.088.803a1.01 1.01 0 0 0 .054.111c.15.236.362.425.614.547s.532.17.81.14h11.28c.284.008.566-.053.82-.18s.474-.314.638-.546h0zm-7.096-10.616l5.538 9.742H10.116l5.535-9.741z" fill="#2d4a5d"/></svg>
